; generated by PrusaSlicer 2.2.0+win64 on 2020-10-29 at 19:48:47 UTC

; 

; external perimeters extrusion width = 0.40mm
; perimeters extrusion width = 0.40mm
; infill extrusion width = 0.40mm
; solid infill extrusion width = 0.40mm
; top infill extrusion width = 0.40mm
; first layer extrusion width = 0.40mm

M201 X6000 Y6000 Z300 E10000 ; sets maximum accelerations, mm/sec^2
M203 X300 Y300 Z8 E120 ; sets maximum feedrates, mm/sec
M204 P1000 R1000 T1000 ; sets acceleration (P, T) and retract acceleration (R), mm/sec^2
M205 X10.00 Y10.00 Z0.20 E2.50 ; sets the jerk limits, mm/sec
M205 S0 T0 ; sets the minimum extruding and travel feed rate, mm/sec
M107
M190 S60 ; set bed temperature and wait for it to be reached
M104 S200 ; set temperature
G28 ; home all axes
G1 Z5 F5000 ; lift nozzle
M109 S200 ; set temperature and wait for it to be reached
G21 ; set units to millimeters
G90 ; use absolute coordinates
M82 ; use absolute distances for extrusion
G92 E0
; Filament gcode
G1 Z0.200 F6000.000
G1 E-2.00000 F2400.00000
G92 E0
G1 X38.191 Y73.578 F6000.000
G1 E2.00000 F2400.00000
G1 F1800.000
G1 X39.393 Y73.019 E2.03934
G1 X59.614 Y67.834 E2.65917
G1 X60.468 Y67.732 E2.68471
G1 X91.360 Y65.979 E3.60340
G1 X93.061 Y65.968 E3.65390
G1 X94.296 Y66.077 E3.69071
G1 X95.499 Y66.404 E3.72773
G1 X96.626 Y66.936 E3.76474
G1 X97.642 Y67.658 E3.80175
G1 X100.787 Y70.771 E3.93313
G1 X101.352 Y71.419 E3.95867
G1 X102.141 Y72.704 E4.00344
G1 X102.639 Y74.128 E4.04822
G1 X109.786 Y121.294 E5.46464
G1 X109.813 Y131.400 E5.76470
G1 X109.572 Y132.863 E5.80870
G1 X109.028 Y134.248 E5.85290
G1 X108.541 Y135.051 E5.88077
G1 X107.952 Y135.781 E5.90864
G1 X104.308 Y139.365 E6.06038
G1 X103.490 Y139.924 E6.08981
G1 X102.601 Y140.363 E6.11924
G1 X101.660 Y140.674 E6.14867
G1 X100.678 Y140.850 E6.17830
G1 X57.639 Y140.909 E7.45617
G1 X56.021 Y140.694 E7.50464
G1 X54.490 Y140.111 E7.55329
G1 X53.623 Y139.578 E7.58350
G1 X52.847 Y138.930 E7.61351
G1 X52.167 Y138.173 E7.64372
G1 X51.606 Y137.333 E7.67373
G1 X29.673 Y96.839 E9.04107
G1 X29.125 Y95.512 E9.08371
G1 X28.895 Y94.454 E9.11586
G1 X28.830 Y93.373 E9.14802
G1 X28.930 Y92.301 E9.17998
G1 X29.193 Y91.250 E9.21213
G1 X35.487 Y76.420 E9.69050
G1 X36.206 Y75.306 E9.72984
G1 X37.115 Y74.351 E9.76899
G1 X38.149 Y73.608 E9.80678
G1 X38.356 Y73.899 F6000.000
G1 F1800.000
G1 X39.535 Y73.347 E9.84543
G1 X59.697 Y68.182 E10.46339
G1 X91.380 Y66.335 E11.40570
G1 X93.060 Y66.325 E11.45560
G1 X94.239 Y66.430 E11.49072
G1 X95.380 Y66.740 E11.52583
G1 X96.449 Y67.246 E11.56095
G1 X97.418 Y67.936 E11.59626
G1 X101.060 Y71.625 E11.75018
G1 X101.820 Y72.860 E11.79324
G1 X102.296 Y74.230 E11.83630
G1 X109.430 Y121.327 E13.25063
G1 X109.457 Y131.371 E13.54884
G1 X109.227 Y132.770 E13.59095
G1 X108.705 Y134.096 E13.63326
G1 X108.242 Y134.855 E13.65966
G1 X107.683 Y135.546 E13.68606
G1 X104.091 Y139.082 E13.83571
G1 X103.309 Y139.616 E13.86381
G1 X102.454 Y140.037 E13.89211
G1 X101.555 Y140.332 E13.92022
G1 X100.623 Y140.497 E13.94832
G1 X57.648 Y140.552 E15.22429
G1 X56.103 Y140.347 E15.27056
G1 X54.642 Y139.788 E15.31702
G1 X53.826 Y139.284 E15.34551
G1 X53.090 Y138.668 E15.37399
G1 X52.445 Y137.949 E15.40267
G1 X51.913 Y137.150 E15.43116
G1 X29.988 Y96.670 E16.79806
G1 X29.466 Y95.406 E16.83867
G1 X29.248 Y94.399 E16.86924
G1 X29.187 Y93.371 E16.89981
G1 X29.284 Y92.346 E16.93038
G1 X29.537 Y91.348 E16.96095
G1 X35.811 Y76.572 E17.43758
G1 X36.496 Y75.516 E17.47497
G1 X37.366 Y74.606 E17.51236
G1 X38.313 Y73.930 E17.54690
G1 X38.520 Y74.222 F6000.000
G1 F1800.000
G1 X38.593 Y74.170 E17.54956
G1 X39.680 Y73.675 E17.58502
G1 X59.772 Y68.531 E18.20083
G1 X91.400 Y66.692 E19.14148
G1 X93.060 Y66.682 E19.19078
G1 X94.182 Y66.783 E19.22421
G1 X95.268 Y67.080 E19.25764
G1 X96.284 Y67.564 E19.29107
G1 X97.200 Y68.219 E19.32450
G1 X100.772 Y71.836 E19.47545
G1 X101.499 Y73.017 E19.51661
G1 X101.952 Y74.327 E19.55777
G1 X109.075 Y121.360 E20.97017
G1 X109.102 Y131.335 E21.26634
G1 X108.882 Y132.679 E21.30677
G1 X108.381 Y133.945 E21.34720
G1 X107.942 Y134.661 E21.37214
G1 X107.412 Y135.313 E21.39709
G1 X103.873 Y138.799 E21.54458
G1 X103.128 Y139.309 E21.57138
G1 X102.318 Y139.707 E21.59817
G1 X101.460 Y139.987 E21.62497
G1 X100.571 Y140.143 E21.65176
G1 X57.657 Y140.195 E22.92594
G1 X56.185 Y139.999 E22.97004
G1 X54.798 Y139.467 E23.01414
G1 X54.026 Y138.988 E23.04112
G1 X53.330 Y138.404 E23.06810
G1 X52.724 Y137.727 E23.09508
G1 X52.221 Y136.970 E23.12206
G1 X30.302 Y96.500 E24.48859
G1 X29.806 Y95.299 E24.52717
G1 X29.601 Y94.343 E24.55618
G1 X29.545 Y93.362 E24.58537
G1 X29.640 Y92.383 E24.61456
G1 X29.884 Y91.437 E24.64357
G1 X36.134 Y76.725 E25.11818
G1 X36.786 Y75.725 E25.15364
G1 X37.614 Y74.864 E25.18910
G1 X38.477 Y74.252 E25.22052
G1 E23.22052 F2400.00000
G92 E0
G1 X65.836 Y130.406 F6000.000
G1 E2.00000 F2400.00000
G1 F1800.000
G1 X65.522 Y130.660 E2.01199
G1 X65.183 Y130.880 E2.02398
G1 X64.823 Y131.063 E2.03597
G1 X64.446 Y131.208 E2.04796
G1 X64.056 Y131.313 E2.05995
G1 X63.657 Y131.376 E2.07194
G1 X63.254 Y131.397 E2.08393
G1 X62.851 Y131.376 E2.09592
G1 X62.452 Y131.313 E2.10791
G1 X62.062 Y131.208 E2.11990
G1 X61.685 Y131.063 E2.13189
G1 X61.325 Y130.880 E2.14388
G1 X60.986 Y130.660 E2.15587
G1 X60.673 Y130.406 E2.16787
G1 X60.387 Y130.120 E2.17986
G1 X60.133 Y129.807 E2.19185
G1 X59.913 Y129.468 E2.20384
G1 X59.730 Y129.108 E2.21583
G1 X59.585 Y128.731 E2.22782
G1 X59.480 Y128.341 E2.23981
G1 X59.417 Y127.942 E2.25180
G1 X59.396 Y127.539 E2.26379
G1 X59.417 Y127.136 E2.27578
G1 X59.481 Y126.735 E2.28782
G1 X59.593 Y126.325 E2.30044
G1 X59.730 Y125.970 E2.31175
G1 X59.913 Y125.610 E2.32374
G1 X60.133 Y125.271 E2.33573
G1 X60.387 Y124.957 E2.34772
G1 X60.672 Y124.672 E2.35971
G1 X60.986 Y124.418 E2.37170
G1 X61.325 Y124.198 E2.38369
G1 X61.685 Y124.014 E2.39568
G1 X62.062 Y123.870 E2.40767
G1 X62.452 Y123.765 E2.41966
G1 X62.851 Y123.702 E2.43165
G1 X63.233 Y123.682 E2.44301
G1 X63.656 Y123.702 E2.45558
G1 X64.056 Y123.765 E2.46762
G1 X64.446 Y123.870 E2.47961
G1 X64.823 Y124.014 E2.49160
G1 X65.183 Y124.198 E2.50359
G1 X65.522 Y124.418 E2.51558
G1 X65.836 Y124.672 E2.52757
G1 X66.121 Y124.957 E2.53956
G1 X66.375 Y125.271 E2.55155
G1 X66.595 Y125.610 E2.56354
G1 X66.779 Y125.970 E2.57553
G1 X66.923 Y126.347 E2.58752
G1 X67.028 Y126.737 E2.59951
G1 X67.091 Y127.136 E2.61151
G1 X67.112 Y127.539 E2.62350
G1 X67.091 Y127.942 E2.63549
G1 X67.028 Y128.341 E2.64748
G1 X66.923 Y128.731 E2.65947
G1 X66.779 Y129.108 E2.67146
G1 X66.595 Y129.468 E2.68345
G1 X66.375 Y129.807 E2.69544
G1 X66.121 Y130.120 E2.70743
G1 X65.873 Y130.369 E2.71786
G1 X65.596 Y130.140 F6000.000
G1 F1800.000
G1 X65.312 Y130.371 E2.72874
G1 X65.004 Y130.570 E2.73962
G1 X64.678 Y130.737 E2.75050
G1 X64.336 Y130.868 E2.76138
G1 X63.982 Y130.963 E2.77226
G1 X63.620 Y131.020 E2.78314
G1 X63.254 Y131.039 E2.79401
G1 X62.888 Y131.020 E2.80489
G1 X62.526 Y130.963 E2.81577
G1 X62.172 Y130.868 E2.82665
G1 X61.830 Y130.737 E2.83753
G1 X61.504 Y130.570 E2.84841
G1 X61.197 Y130.371 E2.85929
G1 X60.912 Y130.140 E2.87017
G1 X60.653 Y129.881 E2.88105
G1 X60.422 Y129.596 E2.89193
G1 X60.223 Y129.289 E2.90281
G1 X60.056 Y128.963 E2.91369
G1 X59.925 Y128.621 E2.92456
G1 X59.830 Y128.267 E2.93544
G1 X59.773 Y127.905 E2.94632
G1 X59.754 Y127.539 E2.95720
G1 X59.773 Y127.173 E2.96808
G1 X59.830 Y126.810 E2.97898
G1 X59.933 Y126.437 E2.99049
G1 X60.056 Y126.115 E3.00072
G1 X60.223 Y125.789 E3.01159
G1 X60.422 Y125.481 E3.02247
G1 X60.653 Y125.196 E3.03335
G1 X60.912 Y124.937 E3.04423
G1 X61.197 Y124.707 E3.05511
G1 X61.504 Y124.507 E3.06599
G1 X61.830 Y124.341 E3.07687
G1 X62.172 Y124.210 E3.08775
G1 X62.526 Y124.115 E3.09863
G1 X62.888 Y124.057 E3.10951
G1 X63.234 Y124.039 E3.11978
G1 X63.619 Y124.057 E3.13125
G1 X63.982 Y124.115 E3.14214
G1 X64.336 Y124.210 E3.15302
G1 X64.678 Y124.341 E3.16390
G1 X65.004 Y124.507 E3.17478
G1 X65.312 Y124.707 E3.18566
G1 X65.596 Y124.937 E3.19654
G1 X65.856 Y125.196 E3.20742
G1 X66.086 Y125.481 E3.21830
G1 X66.286 Y125.789 E3.22917
G1 X66.452 Y126.115 E3.24005
G1 X66.583 Y126.457 E3.25093
G1 X66.678 Y126.811 E3.26181
G1 X66.735 Y127.173 E3.27269
G1 X66.755 Y127.539 E3.28357
G1 X66.735 Y127.905 E3.29445
G1 X66.678 Y128.267 E3.30533
G1 X66.583 Y128.621 E3.31621
G1 X66.452 Y128.963 E3.32709
G1 X66.286 Y129.289 E3.33797
G1 X66.086 Y129.596 E3.34885
G1 X65.856 Y129.881 E3.35972
G1 X65.634 Y130.103 E3.36905
G1 X65.669 Y130.483 F6000.000
G1 E1.36905 F2400.00000
G92 E0
G1 X84.446 Y128.136 F6000.000
G1 E2.00000 F2400.00000
G1 F1800.000
G1 X84.384 Y127.539 E2.01782
G1 X84.446 Y126.942 E2.03563
G1 X84.632 Y126.371 E2.05345
G1 X84.932 Y125.852 E2.07126
G1 X85.333 Y125.406 E2.08908
G1 X85.819 Y125.053 E2.10690
G1 X86.367 Y124.809 E2.12471
G1 X86.954 Y124.684 E2.14253
G1 X87.554 Y124.684 E2.16035
G1 X88.141 Y124.809 E2.17817
G1 X88.689 Y125.053 E2.19598
G1 X89.175 Y125.406 E2.21380
G1 X89.576 Y125.852 E2.23162
G1 X89.876 Y126.371 E2.24943
G1 X90.062 Y126.942 E2.26725
G1 X90.124 Y127.539 E2.28506
G1 X90.062 Y128.136 E2.30288
G1 X89.876 Y128.706 E2.32070
G1 X89.576 Y129.226 E2.33851
G1 X89.175 Y129.672 E2.35633
G1 X88.689 Y130.025 E2.37415
G1 X88.141 Y130.269 E2.39196
G1 X87.554 Y130.393 E2.40978
G1 X86.954 Y130.393 E2.42759
G1 X86.367 Y130.269 E2.44541
G1 X85.819 Y130.025 E2.46323
G1 X85.333 Y129.672 E2.48104
G1 X84.932 Y129.226 E2.49886
G1 X84.632 Y128.706 E2.51668
G1 X84.463 Y128.185 E2.53294
G1 X84.798 Y128.061 F6000.000
G1 F1800.000
G1 X84.743 Y127.539 E2.54852
G1 X84.798 Y127.017 E2.56411
G1 X84.960 Y126.517 E2.57970
G1 X85.222 Y126.063 E2.59529
G1 X85.574 Y125.673 E2.61087
G1 X85.998 Y125.364 E2.62646
G1 X86.478 Y125.150 E2.64205
G1 X86.992 Y125.041 E2.65764
G1 X87.517 Y125.041 E2.67322
G1 X88.030 Y125.150 E2.68881
G1 X88.510 Y125.364 E2.70440
G1 X88.934 Y125.673 E2.71999
G1 X89.286 Y126.063 E2.73558
G1 X89.548 Y126.517 E2.75116
G1 X89.711 Y127.017 E2.76675
G1 X89.765 Y127.539 E2.78234
G1 X89.711 Y128.061 E2.79793
G1 X89.548 Y128.560 E2.81352
G1 X89.286 Y129.015 E2.82910
G1 X88.934 Y129.405 E2.84469
G1 X88.510 Y129.714 E2.86028
G1 X88.030 Y129.927 E2.87587
G1 X87.517 Y130.036 E2.89146
G1 X86.992 Y130.036 E2.90704
G1 X86.478 Y129.927 E2.92263
G1 X85.998 Y129.714 E2.93822
G1 X85.574 Y129.405 E2.95381
G1 X85.222 Y129.015 E2.96939
G1 X84.960 Y128.560 E2.98498
G1 X84.814 Y128.111 E2.99901
G1 X85.149 Y127.986 F6000.000
G1 F1800.000
G1 X85.102 Y127.539 E3.01237
G1 X85.149 Y127.091 E3.02573
G1 X85.288 Y126.663 E3.03909
G1 X85.513 Y126.274 E3.05245
G1 X85.814 Y125.939 E3.06581
G1 X86.178 Y125.675 E3.07917
G1 X86.589 Y125.492 E3.09252
G1 X87.029 Y125.398 E3.10588
G1 X87.479 Y125.398 E3.11924
G1 X87.919 Y125.492 E3.13260
G1 X88.330 Y125.675 E3.14596
G1 X88.694 Y125.939 E3.15932
G1 X88.995 Y126.274 E3.17268
G1 X89.220 Y126.663 E3.18604
G1 X89.359 Y127.091 E3.19940
G1 X89.406 Y127.539 E3.21276
G1 X89.359 Y127.986 E3.22612
G1 X89.220 Y128.414 E3.23948
G1 X88.995 Y128.804 E3.25283
G1 X88.694 Y129.138 E3.26619
G1 X88.330 Y129.403 E3.27955
G1 X87.919 Y129.586 E3.29291
G1 X87.479 Y129.679 E3.30627
G1 X87.029 Y129.679 E3.31963
G1 X86.589 Y129.586 E3.33299
G1 X86.178 Y129.403 E3.34635
G1 X85.814 Y129.138 E3.35971
G1 X85.513 Y128.804 E3.37307
G1 X85.288 Y128.414 E3.38642
G1 X85.165 Y128.036 E3.39823
G1 X84.816 Y127.878 F6000.000
G1 E1.39823 F2400.00000
G92 E0
G1 X46.425 Y91.172 F6000.000
G1 E2.00000 F2400.00000
G1 F1800.000
G1 X45.939 Y91.525 E2.01782
G1 X45.391 Y91.769 E2.03563
G1 X44.804 Y91.893 E2.05345
G1 X44.204 Y91.893 E2.07126
G1 X43.617 Y91.769 E2.08908
G1 X43.069 Y91.525 E2.10690
G1 X42.583 Y91.172 E2.12471
G1 X42.182 Y90.726 E2.14253
G1 X41.882 Y90.206 E2.16034
G1 X41.696 Y89.636 E2.17816
G1 X41.634 Y89.039 E2.19598
G1 X41.696 Y88.442 E2.21379
G1 X41.882 Y87.871 E2.23161
G1 X42.182 Y87.352 E2.24943
G1 X42.583 Y86.906 E2.26725
G1 X43.069 Y86.553 E2.28506
G1 X43.617 Y86.309 E2.30287
G1 X44.204 Y86.184 E2.32069
G1 X44.804 Y86.184 E2.33851
G1 X45.391 Y86.309 E2.35633
G1 X45.939 Y86.553 E2.37414
G1 X46.425 Y86.906 E2.39196
G1 X46.826 Y87.352 E2.40978
G1 X47.126 Y87.871 E2.42759
G1 X47.312 Y88.442 E2.44541
G1 X47.374 Y89.039 E2.46322
G1 X47.312 Y89.636 E2.48104
G1 X47.126 Y90.206 E2.49886
G1 X46.826 Y90.726 E2.51667
G1 X46.460 Y91.133 E2.53293
G1 X46.184 Y90.905 F6000.000
G1 F1800.000
G1 X45.760 Y91.214 E2.54852
G1 X45.280 Y91.427 E2.56411
G1 X44.767 Y91.536 E2.57969
G1 X44.242 Y91.536 E2.59528
G1 X43.728 Y91.427 E2.61087
G1 X43.249 Y91.214 E2.62646
G1 X42.824 Y90.905 E2.64204
G1 X42.472 Y90.515 E2.65763
G1 X42.210 Y90.060 E2.67322
G1 X42.048 Y89.561 E2.68881
G1 X41.993 Y89.039 E2.70440
G1 X42.048 Y88.517 E2.71998
G1 X42.210 Y88.017 E2.73557
G1 X42.472 Y87.563 E2.75116
G1 X42.824 Y87.173 E2.76675
G1 X43.249 Y86.864 E2.78234
G1 X43.728 Y86.651 E2.79792
G1 X44.242 Y86.541 E2.81351
G1 X44.767 Y86.541 E2.82910
G1 X45.280 Y86.651 E2.84469
G1 X45.760 Y86.864 E2.86027
G1 X46.184 Y87.173 E2.87586
G1 X46.536 Y87.563 E2.89145
G1 X46.798 Y88.017 E2.90704
G1 X46.961 Y88.517 E2.92263
G1 X47.015 Y89.039 E2.93821
G1 X46.961 Y89.561 E2.95380
G1 X46.798 Y90.060 E2.96939
G1 X46.536 Y90.515 E2.98497
G1 X46.220 Y90.866 E2.99900
G1 X45.944 Y90.638 F6000.000
G1 F1800.000
G1 X45.580 Y90.903 E3.01236
G1 X45.169 Y91.086 E3.02572
G1 X44.729 Y91.179 E3.03908
G1 X44.279 Y91.179 E3.05244
G1 X43.839 Y91.086 E3.06580
G1 X43.428 Y90.903 E3.07916
G1 X43.064 Y90.638 E3.09252
G1 X42.763 Y90.304 E3.10588
G1 X42.538 Y89.914 E3.11923
G1 X42.399 Y89.486 E3.13260
G1 X42.352 Y89.039 E3.14595
G1 X42.399 Y88.591 E3.15931
G1 X42.538 Y88.163 E3.17267
G1 X42.763 Y87.774 E3.18603
G1 X43.064 Y87.439 E3.19939
G1 X43.428 Y87.175 E3.21275
G1 X43.839 Y86.992 E3.22611
G1 X44.279 Y86.898 E3.23947
G1 X44.729 Y86.898 E3.25283
G1 X45.169 Y86.992 E3.26619
G1 X45.580 Y87.175 E3.27954
G1 X45.944 Y87.439 E3.29290
G1 X46.245 Y87.774 E3.30626
G1 X46.470 Y88.163 E3.31962
G1 X46.609 Y88.591 E3.33298
G1 X46.656 Y89.039 E3.34634
G1 X46.609 Y89.486 E3.35970
G1 X46.470 Y89.914 E3.37306
G1 X46.245 Y90.304 E3.38642
G1 X45.979 Y90.599 E3.39822
G1 X46.017 Y90.981 F6000.000
G1 E1.39822 F2400.00000
G92 E0
G1 X65.640 Y82.125 F6000.000
G1 E2.00000 F2400.00000
G1 F1800.000
G1 X90.266 Y82.124 E2.73118
G1 X91.304 Y82.097 E2.76202
G1 X91.647 Y82.069 E2.77223
G1 X91.640 Y124.097 E4.02011
G1 X91.702 Y124.688 E4.03773
G1 X91.904 Y125.308 E4.05710
G1 X92.230 Y125.873 E4.07647
G1 X92.666 Y126.358 E4.09584
G1 X93.194 Y126.741 E4.11521
G1 X93.790 Y127.006 E4.13458
G1 X94.428 Y127.142 E4.15394
G1 X94.791 Y127.142 E4.16474
G1 X94.399 Y127.822 E4.18806
G1 X94.126 Y128.661 E4.21425
G1 X94.034 Y129.539 E4.24045
G1 X94.126 Y130.416 E4.26665
G1 X94.399 Y131.255 E4.29284
G1 X94.840 Y132.019 E4.31904
G1 X95.475 Y132.725 E4.34721
G1 X58.868 Y132.725 E5.43411
G1 X58.868 Y128.021 E5.57375
G1 X59.066 Y128.006 E5.57964
G1 X59.131 Y128.415 E5.59194
G1 X59.245 Y128.842 E5.60504
G1 X59.403 Y129.253 E5.61815
G1 X59.603 Y129.647 E5.63125
G1 X59.844 Y130.017 E5.64435
G1 X60.121 Y130.360 E5.65745
G1 X60.433 Y130.672 E5.67055
G1 X60.776 Y130.949 E5.68365
G1 X61.146 Y131.190 E5.69676
G1 X61.539 Y131.390 E5.70986
G1 X61.951 Y131.548 E5.72296
G1 X62.378 Y131.662 E5.73606
G1 X62.813 Y131.731 E5.74916
G1 X63.254 Y131.754 E5.76226
G1 X63.695 Y131.731 E5.77537
G1 X64.131 Y131.662 E5.78847
G1 X64.557 Y131.548 E5.80157
G1 X64.969 Y131.390 E5.81467
G1 X65.362 Y131.190 E5.82777
G1 X65.732 Y130.949 E5.84087
G1 X66.075 Y130.672 E5.85398
G1 X66.387 Y130.360 E5.86708
G1 X66.665 Y130.017 E5.88018
G1 X66.905 Y129.647 E5.89328
G1 X67.105 Y129.253 E5.90638
G1 X67.263 Y128.842 E5.91948
G1 X67.378 Y128.415 E5.93259
G1 X67.447 Y127.979 E5.94569
G1 X67.470 Y127.539 E5.95879
G1 X67.447 Y127.098 E5.97189
G1 X67.378 Y126.662 E5.98499
G1 X67.263 Y126.236 E5.99810
G1 X67.105 Y125.824 E6.01120
G1 X66.905 Y125.431 E6.02430
G1 X66.665 Y125.061 E6.03740
G1 X66.387 Y124.718 E6.05050
G1 X66.075 Y124.406 E6.06360
G1 X65.732 Y124.128 E6.07671
G1 X65.362 Y123.888 E6.08981
G1 X64.969 Y123.688 E6.10291
G1 X64.557 Y123.529 E6.11601
G1 X64.131 Y123.415 E6.12911
G1 X63.692 Y123.346 E6.14229
G1 X63.232 Y123.324 E6.15598
G1 X62.813 Y123.346 E6.16841
G1 X62.378 Y123.415 E6.18152
