; generated by PrusaSlicer 2.2.0+win64 on 2020-11-14 at 15:00:30 UTC

; 

; external perimeters extrusion width = 0.40mm
; perimeters extrusion width = 0.40mm
; infill extrusion width = 0.40mm
; solid infill extrusion width = 0.40mm
; top infill extrusion width = 0.40mm
; first layer extrusion width = 0.40mm

M201 X6000 Y6000 Z300 E10000 ; sets maximum accelerations, mm/sec^2
M203 X300 Y300 Z8 E120 ; sets maximum feedrates, mm/sec
M204 P1000 R1000 T1000 ; sets acceleration (P, T) and retract acceleration (R), mm/sec^2
M205 X10.00 Y10.00 Z0.20 E2.50 ; sets the jerk limits, mm/sec
M205 S0 T0 ; sets the minimum extruding and travel feed rate, mm/sec
M107
M190 S60 ; set bed temperature and wait for it to be reached
M104 S200 ; set temperature
G28 ; home all axes
G1 Z5 F5000 ; lift nozzle
M109 S200 ; set temperature and wait for it to be reached
G21 ; set units to millimeters
G90 ; use absolute coordinates
M82 ; use absolute distances for extrusion
G92 E0
; Filament gcode
G1 Z0.300 F7800.000
G1 E-2.00000 F2400.00000
G92 E0
G1 X46.513 Y30.390 F7800.000
G1 E2.00000 F2400.00000
G1 F1800.000
G1 X47.278 Y29.355 E2.05385
G1 X48.219 Y28.478 E2.10771
G1 X49.304 Y27.788 E2.16156
G1 X50.385 Y27.342 E2.21050
G1 X51.526 Y27.083 E2.25945
G1 X54.772 Y27.014 E2.39539
G1 X104.111 Y29.391 E4.46314
G1 X105.215 Y29.627 E4.51038
G1 X106.127 Y29.949 E4.55086
G1 X107.100 Y30.440 E4.59646
G1 X108.031 Y31.087 E4.64397
G1 X108.839 Y31.837 E4.69009
G1 X109.453 Y32.576 E4.73030
G1 X110.029 Y33.477 E4.77508
G1 X110.507 Y34.520 E4.82312
G1 X110.866 Y35.795 E4.87855
G1 X111.008 Y37.072 E4.93233
G1 X111.013 Y45.579 E5.28845
G1 X110.929 Y46.671 E5.33430
G1 X98.863 Y116.963 E8.31976
G1 X98.612 Y117.856 E8.35860
G1 X98.243 Y118.714 E8.39772
G1 X97.762 Y119.516 E8.43683
G1 X97.184 Y120.242 E8.47568
G1 X93.532 Y123.869 E8.69113
G1 X92.546 Y124.567 E8.74171
G1 X91.461 Y125.083 E8.79202
G1 X90.284 Y125.410 E8.84314
G1 X89.075 Y125.527 E8.89400
G1 X52.993 Y125.527 E10.40439
G1 X52.061 Y125.463 E10.44351
G1 X51.076 Y125.256 E10.48563
G1 X50.131 Y124.910 E10.52775
G1 X49.245 Y124.433 E10.56988
G1 X48.442 Y123.837 E10.61172
G1 X45.307 Y120.690 E10.79770
G1 X44.632 Y119.727 E10.84691
G1 X44.126 Y118.658 E10.89640
G1 X43.792 Y117.436 E10.94944
G1 X37.098 Y79.363 E12.56766
G1 X37.000 Y78.173 E12.61763
G1 X37.046 Y73.911 E12.79603
G1 X45.649 Y32.582 E14.56319
G1 X45.953 Y31.541 E14.60858
G1 X46.487 Y30.444 E14.65965
G1 X46.787 Y30.589 F7800.000
G1 F1800.000
G1 X47.527 Y29.581 E14.71198
G1 X48.431 Y28.738 E14.76373
G1 X49.476 Y28.077 E14.81547
G1 X50.508 Y27.655 E14.86217
G1 X51.597 Y27.412 E14.90886
G1 X54.772 Y27.349 E15.04181
G1 X104.043 Y29.720 E17.10668
G1 X105.109 Y29.946 E17.15230
G1 X105.981 Y30.252 E17.19100
G1 X106.915 Y30.720 E17.23473
G1 X107.810 Y31.340 E17.28032
G1 X108.586 Y32.059 E17.32456
G1 X109.174 Y32.764 E17.36299
G1 X109.728 Y33.626 E17.40592
G1 X110.189 Y34.627 E17.45203
G1 X110.536 Y35.859 E17.50562
G1 X110.673 Y37.093 E17.55759
G1 X110.677 Y45.571 E17.91250
G1 X110.597 Y46.627 E17.95682
G1 X98.536 Y116.887 E20.94095
G1 X98.295 Y117.747 E20.97832
G1 X97.944 Y118.561 E21.01542
G1 X97.489 Y119.321 E21.05252
G1 X96.937 Y120.014 E21.08962
G1 X93.329 Y123.601 E21.30256
G1 X92.390 Y124.270 E21.35085
G1 X91.349 Y124.767 E21.39913
G1 X90.225 Y125.079 E21.44795
G1 X89.071 Y125.191 E21.49650
G1 X52.993 Y125.192 E23.00671
G1 X52.128 Y125.134 E23.04301
G1 X51.185 Y124.938 E23.08331
G1 X50.281 Y124.610 E23.12361
G1 X49.432 Y124.154 E23.16391
G1 X48.664 Y123.585 E23.20394
G1 X45.575 Y120.488 E23.38703
G1 X44.927 Y119.565 E23.43425
G1 X44.445 Y118.552 E23.48121
G1 X44.122 Y117.379 E23.53215
G1 X37.429 Y79.307 E25.15027
G1 X37.335 Y78.171 E25.19801
G1 X37.377 Y73.969 E25.37389
G1 X45.977 Y32.650 E27.14058
G1 X46.255 Y31.689 E27.18247
G1 X46.761 Y30.643 E27.23111
G1 X47.061 Y30.787 F7800.000
G1 F1800.000
G1 X47.777 Y29.805 E27.28198
G1 X48.645 Y28.997 E27.33162
G1 X49.649 Y28.366 E27.38127
G1 X50.634 Y27.968 E27.42573
G1 X51.671 Y27.740 E27.47019
G1 X54.772 Y27.685 E27.60000
G1 X103.982 Y30.051 E29.66231
G1 X105.004 Y30.265 E29.70603
G1 X105.837 Y30.555 E29.74296
G1 X106.732 Y31.002 E29.78481
G1 X107.590 Y31.594 E29.82847
G1 X108.338 Y32.285 E29.87108
G1 X108.900 Y32.957 E29.90776
G1 X109.431 Y33.782 E29.94883
G1 X109.873 Y34.740 E29.99300
G1 X110.207 Y35.923 E30.04446
G1 X110.338 Y37.108 E30.09435
G1 X110.341 Y45.570 E30.44859
G1 X110.264 Y46.583 E30.49110
G1 X98.210 Y116.806 E33.47367
G1 X97.984 Y117.620 E33.50904
G1 X97.651 Y118.397 E33.54442
G1 X97.218 Y119.123 E33.57980
G1 X96.688 Y119.789 E33.61543
G1 X93.126 Y123.334 E33.82581
G1 X92.231 Y123.974 E33.87182
G1 X91.240 Y124.449 E33.91784
G1 X90.170 Y124.748 E33.96437
G1 X89.063 Y124.856 E34.01091
G1 X53.000 Y124.856 E35.52053
G1 X52.194 Y124.804 E35.55435
G1 X51.293 Y124.620 E35.59284
G1 X50.428 Y124.308 E35.63133
G1 X49.617 Y123.874 E35.66983
G1 X48.883 Y123.331 E35.70806
G1 X45.843 Y120.285 E35.88817
G1 X45.223 Y119.408 E35.93315
G1 X44.761 Y118.438 E35.97813
G1 X44.452 Y117.318 E36.02674
G1 X37.762 Y79.258 E37.64438
G1 X37.671 Y78.174 E37.68991
G1 X37.709 Y74.025 E37.86359
G1 X46.306 Y32.719 E39.62973
G1 X46.561 Y31.829 E39.66848
G1 X47.035 Y30.841 E39.71438
G1 E37.71438 F2400.00000
G92 E0
G1 X88.998 Y74.970 F7800.000
G1 E2.00000 F2400.00000
G1 F1800.000
G1 X85.014 Y74.970 E2.16676
G1 X83.358 Y72.102 E2.30542
G1 X83.022 Y71.520 E2.33352
G1 X85.014 Y68.070 E2.50028
G1 X88.998 Y68.070 E2.66704
G1 X90.990 Y71.520 E2.83380
G1 X89.028 Y74.919 E2.99805
G1 X88.998 Y75.370 F7800.000
G1 X90.051 Y73.917
G1 F1800.000
G1 X90.015 Y73.881 E3.00021
G1 X91.121 Y71.964 E3.09285
G1 X91.270 Y72.004 E3.09932
G1 X91.270 Y73.328 E3.15474
G1 X90.124 Y73.990 E3.21016
G1 X90.094 Y73.960 E3.21195
G1 E1.21195 F2400.00000
G92 E0
G1 X92.606 Y45.370 F7800.000
G1 E2.00000 F2400.00000
G1 F1800.000
G1 X92.606 Y37.670 E2.32232
G1 X95.406 Y37.670 E2.43953
G1 X95.406 Y45.370 E2.76186
G1 X92.666 Y45.370 E2.87655
G1 X92.239 Y45.529 F7800.000
G1 E0.87655 F2400.00000
G92 E0
G1 X75.541 Y46.690 F7800.000
G1 E2.00000 F2400.00000
G1 F1800.000
G1 X75.351 Y46.867 E2.01083
G1 X75.098 Y47.173 E2.02747
G1 X74.870 Y47.572 E2.04671
G1 X74.711 Y48.027 E2.06687
G1 X74.543 Y47.998 E2.07398
G1 X74.543 Y46.466 E2.13812
G1 X74.853 Y46.458 E2.15107
G1 X74.804 Y45.986 E2.17090
G1 X74.945 Y45.930 E2.17724
G1 X75.504 Y46.643 E2.21517
G1 E0.21517 F2400.00000
G92 E0
G1 X73.092 Y46.306 F7800.000
G1 E2.00000 F2400.00000
G1 F1800.000
G1 X72.646 Y46.371 E2.01885
G1 X72.393 Y46.381 E2.02946
G1 X71.934 Y46.344 E2.04873
G1 X71.791 Y46.308 E2.05492
G1 X71.693 Y46.253 E2.05960
G1 X71.714 Y46.082 E2.06684
G1 X71.776 Y46.025 E2.07033
G1 X72.091 Y45.957 E2.08383
G1 X72.258 Y45.948 E2.09083
G1 X72.448 Y45.958 E2.09881
G1 X72.814 Y46.044 E2.11456
G1 X73.104 Y46.155 E2.12755
G1 X73.097 Y46.246 E2.13135
G1 E0.13135 F2400.00000
G92 E0
G1 X65.192 Y67.735 F7800.000
G1 E2.00000 F2400.00000
G1 F1800.000
G1 X67.377 Y71.520 E2.18298
G1 X65.192 Y75.306 E2.36596
G1 X60.820 Y75.306 E2.54895
G1 X58.635 Y71.520 E2.73193
G1 X60.820 Y67.735 E2.91491
G1 X65.132 Y67.735 E3.09538
G1 X64.998 Y68.070 F7800.000
G1 F1800.000
G1 X66.990 Y71.520 E3.26214
G1 X64.998 Y74.970 E3.42890
G1 X61.014 Y74.970 E3.59566
G1 X59.022 Y71.520 E3.76242
G1 X61.014 Y68.070 E3.92918
G1 X64.938 Y68.070 E4.09343
G1 X65.344 Y67.870 F7800.000
G1 E2.09343 F2400.00000
G92 E0
G1 X69.627 Y90.067 F7800.000
G1 E2.00000 F2400.00000
G1 F1800.000
G1 X70.304 Y89.979 E2.02862
G1 X70.968 Y89.949 E2.05641
G1 X77.767 Y89.949 E2.34102
G1 X78.381 Y89.875 E2.36693
G1 X79.080 Y89.852 E2.39620
G1 X79.868 Y89.897 E2.42922
G1 X80.568 Y90.002 E2.45885
G1 X81.271 Y90.171 E2.48915
G1 X81.959 Y90.403 E2.51952
G1 X82.556 Y90.665 E2.54680
G1 X83.258 Y91.044 E2.58019
G1 X83.863 Y91.451 E2.61073
G1 X84.427 Y91.908 E2.64113
G1 X84.948 Y92.414 E2.67152
G1 X85.374 Y92.907 E2.69879
G1 X85.845 Y93.550 E2.73217
G1 X86.216 Y94.179 E2.76272
G1 X86.529 Y94.834 E2.79311
G1 X86.782 Y95.515 E2.82351
G1 X86.975 Y96.218 E2.85406
G1 X87.110 Y97.004 E2.88744
G1 X87.168 Y97.653 E2.91470
G1 X87.168 Y98.379 E2.94509
G1 X87.104 Y99.102 E2.97549
G1 X86.976 Y99.817 E3.00589
G1 X86.785 Y100.518 E3.03629
G1 X86.531 Y101.202 E3.06683
G1 X86.183 Y101.920 E3.10022
G1 X85.851 Y102.480 E3.12750
G1 X85.428 Y103.070 E3.15787
G1 X84.954 Y103.620 E3.18827
G1 X84.434 Y104.127 E3.21867
G1 X83.870 Y104.584 E3.24907
G1 X83.265 Y104.992 E3.27959
G1 X82.564 Y105.373 E3.31301
G1 X81.967 Y105.635 E3.34030
G1 X81.280 Y105.867 E3.37065
G1 X80.574 Y106.038 E3.40105
G1 X79.853 Y106.146 E3.43156
G1 X79.056 Y106.189 E3.46499
G1 X78.404 Y106.168 E3.49231
G1 X77.767 Y106.092 E3.51915
G1 X69.780 Y106.092 E3.85347
G1 X69.151 Y106.062 E3.87985
G1 X68.503 Y105.972 E3.90725
G1 X67.866 Y105.821 E3.93464
G1 X67.246 Y105.613 E3.96202
G1 X66.666 Y105.357 E3.98855
G1 X66.077 Y105.029 E4.01678
G1 X65.536 Y104.658 E4.04421
G1 X65.034 Y104.240 E4.07160
G1 X64.572 Y103.777 E4.09896
G1 X64.168 Y103.289 E4.12548
G1 X63.797 Y102.750 E4.15284
G1 X63.478 Y102.179 E4.18023
G1 X63.214 Y101.581 E4.20763
G1 X63.005 Y100.960 E4.23502
G1 X62.855 Y100.323 E4.26241
G1 X62.764 Y99.675 E4.28981
G1 X62.734 Y99.022 E4.31720
G1 X62.764 Y98.368 E4.34459
G1 X62.854 Y97.719 E4.37201
G1 X62.981 Y97.180 E4.39518
G1 X63.063 Y96.585 E4.42036
G1 X63.217 Y95.902 E4.44964
G1 X63.430 Y95.236 E4.47893
G1 X63.699 Y94.590 E4.50824
G1 X64.033 Y93.953 E4.53832
G1 X64.412 Y93.365 E4.56762
G1 X64.836 Y92.816 E4.59664
G1 X65.306 Y92.305 E4.62571
G1 X65.830 Y91.827 E4.65540
G1 X66.398 Y91.393 E4.68530
G1 X66.964 Y91.034 E4.71340
G1 X67.616 Y90.695 E4.74413
G1 X68.253 Y90.432 E4.77298
G1 X68.907 Y90.226 E4.80170
G1 X69.568 Y90.080 E4.83002
G1 X69.685 Y90.398 F7800.000
G1 F1800.000
G1 X70.334 Y90.314 E4.85743
G1 X70.975 Y90.285 E4.88431
G1 X77.787 Y90.285 E5.16945
G1 X78.407 Y90.210 E5.19560
G1 X79.076 Y90.188 E5.22361
G1 X79.833 Y90.231 E5.25536
G1 X80.504 Y90.331 E5.28374
G1 X81.178 Y90.494 E5.31278
G1 X81.838 Y90.716 E5.34192
G1 X82.408 Y90.966 E5.36800
G1 X83.084 Y91.332 E5.40013
G1 X83.663 Y91.721 E5.42937
G1 X84.204 Y92.160 E5.45852
G1 X84.704 Y92.644 E5.48766
G1 X85.111 Y93.116 E5.51374
G1 X85.564 Y93.735 E5.54586
G1 X85.920 Y94.337 E5.57510
G1 X86.219 Y94.965 E5.60424
G1 X86.462 Y95.618 E5.63340
G1 X86.647 Y96.291 E5.66264
G1 X86.777 Y97.048 E5.69476
G1 X86.832 Y97.668 E5.72083
G1 X86.832 Y98.364 E5.74998
G1 X86.771 Y99.058 E5.77913
G1 X86.648 Y99.743 E5.80828
G1 X86.465 Y100.415 E5.83742
G1 X86.222 Y101.070 E5.86666
G1 X85.887 Y101.761 E5.89879
G1 X85.570 Y102.297 E5.92488
G1 X85.164 Y102.863 E5.95401
G1 X84.710 Y103.390 E5.98316
G1 X84.210 Y103.875 E6.01231
G1 X83.670 Y104.314 E6.04145
G1 X83.091 Y104.705 E6.07068
G1 X82.416 Y105.071 E6.10283
G1 X81.845 Y105.321 E6.12892
G1 X81.186 Y105.545 E6.15804
G1 X80.510 Y105.708 E6.18719
G1 X79.819 Y105.812 E6.21641
G1 X79.052 Y105.853 E6.24856
G1 X78.429 Y105.833 E6.27467
G1 X77.787 Y105.756 E6.30174
G1 X69.788 Y105.756 E6.63656
G1 X69.182 Y105.728 E6.66197
G1 X68.565 Y105.641 E6.68806
G1 X67.958 Y105.498 E6.71415
G1 X67.367 Y105.300 E6.74023
G1 X66.815 Y105.056 E6.76549
G1 X66.253 Y104.744 E6.79240
G1 X65.739 Y104.391 E6.81852
G1 X65.260 Y103.992 E6.84461
G1 X64.821 Y103.550 E6.87068
G1 X64.436 Y103.087 E6.89592
G1 X64.083 Y102.573 E6.92199
G1 X63.779 Y102.029 E6.94808
G1 X63.527 Y101.459 E6.97417
G1 X63.328 Y100.868 E7.00026
G1 X63.185 Y100.262 E7.02636
G1 X63.099 Y99.644 E7.05245
G1 X63.070 Y99.022 E7.07854
G1 X63.098 Y98.399 E7.10463
G1 X63.185 Y97.781 E7.13075
G1 X63.312 Y97.242 E7.15394
G1 X63.393 Y96.644 E7.17918
G1 X63.541 Y95.990 E7.20725
G1 X63.745 Y95.351 E7.23532
G1 X64.003 Y94.732 E7.26340
G1 X64.324 Y94.123 E7.29224
G1 X64.686 Y93.558 E7.32032
G1 X65.092 Y93.033 E7.34812
G1 X65.543 Y92.543 E7.37598
G1 X66.045 Y92.084 E7.40444
G1 X66.590 Y91.669 E7.43311
G1 X67.132 Y91.325 E7.46000
G1 X67.757 Y91.000 E7.48950
G1 X68.368 Y90.748 E7.51713
G1 X68.994 Y90.551 E7.54463
G1 X69.626 Y90.411 E7.57172
G1 X69.743 Y90.729 F7800.000
G1 F1800.000
G1 X70.363 Y90.648 E7.59790
G1 X70.983 Y90.621 E7.62388
G1 X77.807 Y90.620 E7.90955
G1 X78.433 Y90.545 E7.93593
G1 X79.072 Y90.523 E7.96270
G1 X79.799 Y90.566 E7.99317
G1 X80.439 Y90.661 E8.02029
G1 X81.085 Y90.817 E8.04809
G1 X81.716 Y91.030 E8.07598
G1 X82.261 Y91.268 E8.10087
G1 X82.910 Y91.619 E8.13175
G1 X83.463 Y91.991 E8.15968
G1 X83.981 Y92.411 E8.18757
G1 X84.460 Y92.875 E8.21547
G1 X84.848 Y93.325 E8.24035
G1 X85.283 Y93.920 E8.27123
G1 X85.623 Y94.495 E8.29916
G1 X85.910 Y95.096 E8.32705
G1 X86.143 Y95.721 E8.35495
G1 X86.319 Y96.364 E8.38288
G1 X86.443 Y97.091 E8.41375
G1 X86.496 Y97.683 E8.43864
G1 X86.497 Y98.350 E8.46654
G1 X86.438 Y99.013 E8.49443
G1 X86.320 Y99.669 E8.52233
G1 X86.145 Y100.312 E8.55023
G1 X85.913 Y100.938 E8.57816
G1 X85.591 Y101.602 E8.60904
G1 X85.288 Y102.113 E8.63392
G1 X84.900 Y102.655 E8.66182
G1 X84.465 Y103.160 E8.68971
G1 X83.987 Y103.624 E8.71761
G1 X83.470 Y104.045 E8.74551
G1 X82.917 Y104.418 E8.77344
G1 X82.268 Y104.770 E8.80432
G1 X81.724 Y105.008 E8.82921
G1 X81.093 Y105.222 E8.85710
G1 X80.445 Y105.379 E8.88499
G1 X79.785 Y105.477 E8.91292
G1 X79.049 Y105.517 E8.94380
G1 X78.454 Y105.498 E8.96870
G1 X77.807 Y105.420 E8.99599
G1 X69.796 Y105.420 E9.33133
G1 X69.213 Y105.393 E9.35576
G1 X68.626 Y105.311 E9.38055
G1 X68.050 Y105.175 E9.40534
G1 X67.489 Y104.987 E9.43012
G1 X66.965 Y104.755 E9.45409
G1 X66.430 Y104.458 E9.47970
G1 X65.942 Y104.123 E9.50450
G1 X65.487 Y103.744 E9.52928
G1 X65.069 Y103.324 E9.55407
G1 X64.704 Y102.884 E9.57803
G1 X64.368 Y102.396 E9.60281
G1 X64.080 Y101.879 E9.62760
G1 X63.840 Y101.337 E9.65239
G1 X63.651 Y100.776 E9.67718
G1 X63.515 Y100.200 E9.70197
G1 X63.433 Y99.613 E9.72676
G1 X63.406 Y99.022 E9.75155
G1 X63.433 Y98.430 E9.77634
G1 X63.515 Y97.843 E9.80116
G1 X63.642 Y97.303 E9.82437
G1 X63.724 Y96.704 E9.84967
G1 X63.865 Y96.078 E9.87652
G1 X64.060 Y95.467 E9.90337
G1 X64.307 Y94.875 E9.93023
G1 X64.614 Y94.292 E9.95783
G1 X64.961 Y93.752 E9.98469
G1 X65.349 Y93.249 E10.01128
G1 X65.780 Y92.781 E10.03792
G1 X66.260 Y92.342 E10.06515
G1 X66.782 Y91.945 E10.09259
G1 X67.300 Y91.616 E10.11827
G1 X67.899 Y91.304 E10.14655
G1 X68.482 Y91.064 E10.17295
G1 X69.081 Y90.875 E10.19923
G1 X69.684 Y90.742 E10.22508
G1 X69.880 Y90.353 F7800.000
G1 E8.22508 F2400.00000
G92 E0
G1 X84.722 Y111.394 F7800.000
G1 E2.00000 F2400.00000
G1 F1800.000
G1 X85.118 Y111.117 E2.02025
G1 X85.557 Y110.913 E2.04050
G1 X86.024 Y110.787 E2.06075
G1 X86.476 Y110.748 E2.07975
G1 X86.983 Y110.786 E2.10102
G1 X87.455 Y110.913 E2.12149
G1 X87.894 Y111.117 E2.14174
G1 X88.290 Y111.394 E2.16199
G1 X88.632 Y111.737 E2.18224
G1 X88.910 Y112.133 E2.20249
G1 X89.114 Y112.571 E2.22275
G1 X89.239 Y113.039 E2.24300
G1 X89.281 Y113.520 E2.26325
G1 X89.239 Y114.002 E2.28350
G1 X89.114 Y114.470 E2.30375
G1 X88.910 Y114.908 E2.32400
G1 X88.632 Y115.304 E2.34425
G1 X88.290 Y115.647 E2.36450
G1 X87.894 Y115.924 E2.38475
G1 X87.455 Y116.128 E2.40500
G1 X86.988 Y116.254 E2.42525
G1 X86.506 Y116.296 E2.44550
G1 X86.024 Y116.254 E2.46576
G1 X85.557 Y116.128 E2.48601
G1 X85.145 Y115.937 E2.50501
G1 X84.726 Y115.650 E2.52627
G1 X84.380 Y115.304 E2.54674
G1 X84.103 Y114.908 E2.56700
G1 X83.898 Y114.470 E2.58725
G1 X83.773 Y114.002 E2.60750
G1 X83.731 Y113.520 E2.62775
G1 X83.773 Y113.039 E2.64800
G1 X83.898 Y112.571 E2.66825
G1 X84.103 Y112.133 E2.68850
G1 X84.380 Y111.737 E2.70875
G1 X84.680 Y111.437 E2.72649
G1 X84.939 Y111.653 F7800.000
G1 F1800.000
G1 X85.287 Y111.409 E2.74428
G1 X85.672 Y111.229 E2.76208
G1 X86.083 Y111.119 E2.77987
G1 X86.478 Y111.084 E2.79650
G1 X86.926 Y111.118 E2.81530
G1 X87.340 Y111.229 E2.83323
G1 X87.725 Y111.409 E2.85102
G1 X88.073 Y111.653 E2.86882
G1 X88.374 Y111.953 E2.88661
G1 X88.618 Y112.301 E2.90440
G1 X88.797 Y112.686 E2.92219
G1 X88.907 Y113.097 E2.93999
G1 X88.944 Y113.520 E2.95778
G1 X88.907 Y113.944 E2.97557
G1 X88.797 Y114.354 E2.99336
G1 X88.618 Y114.740 E3.01116
G1 X88.374 Y115.088 E3.02895
G1 X88.073 Y115.388 E3.04674
G1 X87.725 Y115.632 E3.06454
G1 X87.340 Y115.812 E3.08233
G1 X86.929 Y115.922 E3.10012
G1 X86.506 Y115.959 E3.11791
G1 X86.083 Y115.922 E3.13571
